X: 1
T:Rue de l'oiseau (F. Paris)
C:F. Paris: Rue de l'oiseau
M:3/4
L:1/8
K:C
A2B2|:c2c2c2|c2 dc BA|G2G2G2|G6|A2A2A2|A2 ~B3A|G2G2G2|G4 AB|c2c2c2|
c2 dc BA|G2G2G2|G6|D2D2D2|D2D2D2|1 D6-|DA AB Bc:|2 d6|z+E-e-+ +Ee+d cB||
|:BA Ad +A2d2+|z2dc BA|G2Gc G2|z2~cB ce|+D6d6+|zd dc da|gg ed cB|~c2 ed cB|
A2 Ad +A2d2+|z2dc BA|G2Gc G2|z2~cB ce|d3c de|fe dc Bc|c6-|1cz ed cB:|2 cz||
P:Fin
c2d2|:e2e2e2|~e2 de dc|d2 d3g|d4 cB|A2A2A2|A2B2c2|G2G2G2|G6|
e2e2e2|~e2 de dc|d2 d3g|d4 cB|A2A2A2|A2B2c2|d2e2d2|d2c2d2|
e2e2e2|~e2 de dc|d2 d3g|d4 cB|A2A2A2|A2B2c2|+D2G2++D2G2++D2G2+|+E6G6+|
e2e2e2|~e2 de dc|d2 d3g|d4 cB|A2A2A2|A2B2c2|+D2G2++D2G2++D2G2+|+E2G2++E2G2B2+||
